icons/diabetes_measure.svg

<svg width="48" height="48" viewBox="0 0 48 48" fill="none" xmlns="http://www.w3.org/2000/svg">
<path fill-rule="evenodd" clip-rule="evenodd" d="M14.9558 8.21103L32.9558 8.19629L32.9705 26.1963L14.9706 26.211L14.9558 8.21103ZM27.9639 18.0576C27.9656 20.1909 26.207 21.8685 23.967 21.8704C21.727 21.8722 19.9656 20.1974 19.9639 18.0641C19.9621 15.9308 23.9583 11.2037 23.9583 11.2037C23.9583 11.2037 27.9623 16.0766 27.9639 18.0576Z" fill="black"/>
<path d="M16.9836 27.9861C16.4314 27.9866 15.984 28.4347 15.9845 28.9869C15.9849 29.5392 16.433 29.9866 16.9853 29.9861L20.9853 29.9828C21.5376 29.9824 21.9849 29.5343 21.9845 28.982C21.984 28.4297 21.5359 27.9824 20.9836 27.9828L16.9836 27.9861Z" fill="black"/>
<path d="M25.9845 28.9788C25.984 28.4265 26.4314 27.9784 26.9836 27.9779L30.9836 27.9747C31.5359 27.9742 31.984 28.4216 31.9845 28.9738C31.9849 29.5261 31.5376 29.9742 30.9853 29.9747L26.9853 29.9779C26.433 29.9784 25.9849 29.531 25.9845 28.9788Z" fill="black"/>
<path d="M23.982 40.2037C25.0866 40.2028 25.9813 39.3066 25.9804 38.202C25.9795 37.0975 25.0833 36.2028 23.9788 36.2037C22.8742 36.2046 21.9795 37.1008 21.9804 38.2053C21.9813 39.3099 22.8775 40.2046 23.982 40.2037Z" fill="black"/>
<path fill-rule="evenodd" clip-rule="evenodd" d="M12.978 35.2126L17.9779 35.2085L17.9853 44.2085L29.9853 44.1987L29.9779 35.1987L34.978 35.1946C36.6349 35.1932 37.9769 33.849 37.9755 32.1921L37.9551 7.19212C37.9537 5.53527 36.6095 4.19323 34.9526 4.19458L12.9526 4.2126C11.2958 4.21396 9.95372 5.5582 9.95508 7.21506L9.97556 32.2151C9.97691 33.8719 11.3212 35.214 12.978 35.2126ZM34.9543 6.19458L12.9543 6.2126C12.402 6.21305 11.9546 6.66113 11.9551 7.21342L11.9756 32.2134C11.976 32.7657 12.4241 33.213 12.9764 33.2126L17.9762 33.2085L17.9746 31.2085L29.9746 31.1987L29.9762 33.1987L34.9764 33.1946C35.5287 33.1941 35.976 32.746 35.9756 32.1938L35.9551 7.19376C35.9546 6.64148 35.5065 6.19413 34.9543 6.19458ZM27.9762 33.2003L19.9762 33.2069L19.9836 42.2069L27.9836 42.2003L27.9762 33.2003Z" fill="black"/>
</svg>

<svg
  xmlns="http://www.w3.org/2000/svg"
  width="24"
  height="24"
  viewBox="0 0 24 24"
  fill="none"
  stroke="currentColor"
  stroke-width="2"
  stroke-linecap="round"
  stroke-linejoin="round"
>
  <path
    fill-rule="evenodd"
    d="m14.956 8.211 18-.015.014 18-18 .015zm13.008 9.847c.002 2.133-1.757 3.81-3.997 3.812s-4.001-1.673-4.003-3.806 3.994-6.86 3.994-6.86 4.004 4.873 4.006 6.854"
    clip-rule="evenodd"
  />
  <path d="M16.984 27.986a1 1 0 0 0 .001 2l4-.003a1 1 0 1 0-.001-2z" />
  <path d="M25.985 28.979a1 1 0 0 1 .999-1.001l4-.003a1 1 0 1 1 .001 2l-4 .003a1 1 0 0 1-1-1" />
  <path d="M23.982 40.204a2 2 0 1 0-.003-4 2 2 0 0 0 .003 4" />
  <path
    fill-rule="evenodd"
    d="m12.978 35.213 5-.005.007 9 12-.01-.007-9 5-.003a3 3 0 0 0 2.997-3.003l-.02-25a3 3 0 0 0-3.002-2.997l-22 .018a3 3 0 0 0-2.998 3.002l.02 25a3 3 0 0 0 3.003 2.998M34.954 6.195l-22 .018a1 1 0 0 0-.999 1l.02 25a1 1 0 0 0 1.001 1l5-.005-.001-2 12-.01.001 2 5-.003a1 1 0 0 0 1-1.001l-.02-25a1 1 0 0 0-1.002-1M27.976 33.2l-8 .007.008 9 8-.007z"
    clip-rule="evenodd"
  />
</svg>
